packages/tokens/icons/relevance/size24Px.svg

<svg viewBox="0 0 24 24" fill="none" xmlns="http://www.w3.org/2000/svg" width="1em" height="1em"><path d="M16 12C16 14.2091 14.2091 16 12 16C9.79086 16 8 14.2091 8 12C8 9.79086 9.79086 8 12 8" stroke="currentColor" stroke-linecap="round"/><path d="M19 12C19 15.866 15.866 19 12 19C8.13401 19 5 15.866 5 12C5 8.13401 8.13401 5 12 5" stroke="currentColor" stroke-linecap="round"/><path d="M15 2.4578C14.053 2.16035 13.0452 2 12 2C6.47715 2 2 6.47715 2 12C2 17.5228 6.47715 22 12 22C17.5228 22 22 17.5228 22 12C22 10.9548 21.8396 9.94704 21.5422 9" stroke="currentColor" stroke-linecap="round"/><path d="M19.9493 4.26554C19.7942 4.21643 19.6726 4.0949 19.6235 3.93978L19.1395 2.41088C19.0548 2.14339 18.6872 2.01992 18.4298 2.2773L19.9493 4.26554ZM19.9493 4.26554L21.4782 4.7496C21.7457 4.83428 21.8691 5.20187 21.6118 5.45926L18.1401 8.93096C17.9942 9.07686 17.7865 9.10565 17.6306 9.02993L15.7654 8.12374L14.8592 6.25852C14.8413 6.22162 14.8376 6.2001 14.8374 6.18142C14.8371 6.16061 14.8411 6.11256 14.8802 6.02431C14.9653 5.83234 15.1821 5.52509 15.675 5.0321L18.4298 2.27731L19.9493 4.26554Z" stroke="currentColor" stroke-linejoin="round"/><path d="M12 11.8916L19.5 4.3916" stroke="currentColor" stroke-linecap="round"/></svg>

<svg xmlns="http://www.w3.org/2000/svg" fill="none" viewBox="0 0 24 24" width="1em" height="1em"><path stroke="currentColor" stroke-linecap="round" d="M16 12a4 4 0 1 1-4-4"/><path stroke="currentColor" stroke-linecap="round" d="M19 12a7 7 0 1 1-7-7"/><path stroke="currentColor" stroke-linecap="round" d="M15 2.458A9.996 9.996 0 0 0 12 2C6.477 2 2 6.477 2 12s4.477 10 10 10 10-4.477 10-10a9.98 9.98 0 0 0-.458-3"/><path stroke="currentColor" stroke-linejoin="round" d="M19.95 4.266a.5.5 0 0 1-.326-.326l-.484-1.53c-.085-.267-.453-.39-.71-.133l1.52 1.989Zm0 0 1.528.484c.268.084.391.452.134.71L18.14 8.93a.45.45 0 0 1-.51.099l-1.865-.906-.906-1.865a.172.172 0 0 1-.022-.078c0-.02.004-.068.043-.157.085-.192.302-.499.795-.992l2.755-2.755 1.52 1.989Z"/><path stroke="currentColor" stroke-linecap="round" d="m12 11.892 7.5-7.5"/></svg>
